X: 69
T: No_163_Moccasin_Game_Song.krn
%%abc-version 2.0
%%abcx-abcm2ps-target-version 5.9.1 (29 Sep 2008)
%%abc-creator hum2abc beta
%%abcx-conversion-date 2020/08/10 18:54:57
%%gracespace 0 6 6
%%humdrum-veritas 2866284592
%%humdrum-veritas-data 3506671688
%%linebreak <none>
%%barnumbers 0
L: 1/16
M: 2/4
%%staves {1 2}
V: 1 clef=treble
V: 2 clef=bass
K: C
[V:1] [K:clef=treble][M:2/4]G4EE3 | 
[V:2] [K:clef=bass][M:2/4]!accent!G,,2 z G,, !accent!G,,2 z G,, | 
[V:1] G2G2-G4 | 
[V:2] z8 | 
[V:1] GE2GC4 | 
[V:2] z8 | 
[V:1] A,7G | 
[V:2] z8 | 
[V:1] E2>G2 C2C2 ||  
[V:2] z8 ||  
[V:1] [M:3/4]C4>>E4 C3A,[K:clef=bass] | 
[V:2] [M:3/4]z12 | 
[V:1] G,4E,2<E,2 CC3 ||  
[V:2] z12 ||  
[V:1] [M:2/4]A,6CA, ||  
[V:2] [M:2/4]z8 ||  
[V:1] [M:3/4]G,8E,3C, | 
[V:2] [M:3/4]z12 | 
[V:1] C,2<C,2C,8 ||  
[V:2] z12 ||  
[V:1] [M:2/4]C,8 |]  
[V:2] [M:2/4]z8 |]  


